!!!!SEGMENT: pl-wnifc--13846--098_anonim--piesni-polskie-i-ruskie-ludu-galicyjskiego-98-wszystko-z-czasem-ulatuje.krn
!!!kernsource:
!!!cenid: 18xx:3320
!!!COM: Anonim
!!!COM-rismid: pe30004985
!!!CDT:
!!!CNT:
!!!GTL: Pieśni polskie i ruskie ludu galicyjskiego
!!!OTL: 98. Wszystko z czasem ulatuje
!!!PDT: 1833
!!!AGN:
!!!SMS-siglum: PL-Wnifc
!!!SMS-shelfmark: 13846
!!!SMS-shelfwork: 098 G
!!!NIFC-rismid: 1001039196
!!!URL-scan: http://repozytorium.nifc.pl/skany/pl-wnifc-nut--13846
!!!ONB-nifc:
!!!OMD: Andante
!!!key:
**kern	**kern	**dynam	**kern	**text
*part2	*part2	*part2	*part1	*part1
*staff3	*staff2	*	*staff1	*staff1
*I"FORTEPIAN.	*I"FORTEPIAN.	*	*I"GŁOS.	*
*Ipiano	*Ipiano	*	*Ivox	*
*ICklav	*ICklav	*	*ICvox	*
*IGacmp	*IGacmp	*	*IGsolo	*
*clefF4	*clefG2	*	*clefG2	*
*k[f#c#]	*k[f#c#]	*	*k[f#c#]	*
*b:	*b:	*	*b:	*
*M6/8	*M6/8	*	*M6/8	*
=1-	=1-	=1-	=1-	=1-
*^	*	*	*	*
*clefG2	*	*	*	*	*
!	!	!LO:TX:a:t=E.113.:rj	!	!	!
(>4f#/ 4d/|	4B\	(>4dd\^<	.	4dd\	Wszy-
8f#/ 8d/|)	8B\	(>16dd\^<LL	.	(>16dd\LL	-stko
.	.	16cc#\JJ))	.	16cc#\JJ)	.
(>4g/ 4e/ 4B/|	4B\	4cc#\	.	4cc#\	z_cza-
8g/ 8e/ 8B/|)	8B\	(>16cc#\LL	.	(>16cc#\LL	-sem
.	.	16ff#\JJ)	.	16ff#\JJ)	.
=2	=2	=2	=2	=2	=2
(>4e/ 4c#/|	4B\	4ff#/ 4a#X/ 4f#/^	.	4ff#\	u-
8e/ 8c#/|	8B\	8a#/ 8f#/	.	8a#X/	-la-
4d/ 4B/|)	4ryy	4b/ 4f#/	.	4b\	-tu-
8r	8ryy	8f#/	.	8f#/	-je,
!!LO:LB:g=original
=3	=3	=3	=3	=3	=3
*	*	*^	*	*	*
(>4e#X/|^	4dn\ 4B\	4ddn/	4g#X\	.	4dd\	prócz
!	!	!LO:S:s=1:note:problem=note-level slur	!	!	!	!
8e#/|)	8d\ 8B\	(<16dd/LL	8g#\|	.	(>16dd\LL	mo-
.	.	16cc#/JJ)	.	.	16cc#\JJ)	.
(>4en/|	4en\ 4c#\ 4A#X\	4cc#X/ 4gn/	4gn^\	.	4cc#\	-je-
8c#X/|)	8An\	8cc#/ 8f#/	8ryy	.	8cc#\	-go
*v	*v	*	*	*	*	*
*	*v	*v	*	*	*
=4	=4	=4	=4	=4
*clefF4	*	*	*	*
(>4c#\ 4B\ 4G\|^<	4ee\ 4cc#\ 4b\	.	4ee\	u-
8c#\ 8B\ 8G\|)	8ee\ 8cc#\ 8b\	.	8ee\	-mart-
4c#\ 4A#X\ 4F#\^<;	4ff#\ 4cc#\ 4a#X\;	.	4ff#\;	-wie-
8r	8f#/	.	8f#/	-nia;
!!LO:LB:g=original
=5	=5	=5	=5	=5
4B\ 4BB\^<	4ff#\ 4dd\	<	4ff#\	wszy-
8r	8ff#\ 8dd\	[	8ff#\	-stko
4E/ 4EE/^	(>8.gg\L 8.ee\^<	.	(>8.gg\L	ko-
.	16ff#\L 16dd\)	.	16ff#\Jk)	.
8r	(>16ff#\ 16dd\^<	.	(>16ff#\LL	-niec
.	16ee\JJ 16cc#\)	.	16ee\JJ)	.
=6	=6	=6	=6	=6
4An/ 4AAn/	4ee\ 4cc#\	<	4ee\	swój
8r	8ee\ 8cc#\	[	8ee\	znaj-
4D/ 4DD/	(>8.ff#\L 8.dd\	>	(>8.ff#\L	-du-
!	!LO:N:vis=8	!	!	!
.	16ee\L 16cc#\)	.	(16ee\Jk)	.
8r	(>16dd\ 16b\	.	(>16.dd\LL	-je,
.	.	]	.	.
.	16cc#/JJ 16a#X/)	.	.	.
.	.	.	32cc#\JJk))	.
!!LO:LB:g=original
=7	=7	=7	=7	=7
*	*^	*	*	*
4Gn/ 4GGn/	(>4dd\ 4b\|	2ryy	.	4dd\	los
8r	8ff#\ 8dd\|)	.	.	8ff#\	się
(>4G\'^<	(>8.ee\L 8.b\	.	.	(>8.ee\L	mój
.	.	8ryy	.	.	.
.	16dd\Jk)	.	.	(>16dd\Jk)	.
!	!LO:S:s=1:note:problem=note-level slur	!	!	!	!
8c#\ 8G\^)	(<16cc#/LL	8e#X\	.	16cc#\LL	zły
.	16b/JJ)	.	.	16b\JJ)	.
=8	=8	=8	=8	=8	=8
4e\ 4c#\ 4F#\'^<	4ff#/	4ff#\ 4f#\	>	4ff#\	nie
8e\ 8c#\ 8F#\'	8a#X/ 8f#/	2ryy	]	8a#X/	odmie-
4d\ 4B\	4b/ 4f#/	.	.	4b\	-nia.
8r	8r	.	.	8r	.
*	*v	*v	*	*	*
==	==	==	==	==
*-	*-	*-	*-	*-
!!!system-decoration: <s1>{(s2,s3)}
!!!RDF**kern: > = above
!!!RDF**kern: < = below
!!!RDF**kern: | = vertical stroke
!!!AIN: 1 piano 1 vox
!!!ENC: Andrzej Kubiczek
!!!END: 2021-11-11
